icons/1_Primary/Hestia Control Panel.svg

<svg xmlns="http://www.w3.org/2000/svg" width="1024" height="1024" fill="none">
   <g clip-path="url(#a)">
      <path fill="#BA6561" d="M512 1024c282.77 0 512-229.23 512-512S794.77 0 512 0 0 229.23 0 512s229.23 512 512 512Z"/>
      <path fill="#fff" d="M769.83 729.3c-92.31 22.57-124.47-48.29-128.4-58-9.07-69.12 14.79-159.11-18.18-182.91-24.45-17.3-52.89 4.07-61.54 11.52h-.07c-14.62 12.83-24.24 31.37-38.5 59.89-21.76 43.64-39.57 73.82-53.59 94.64-6.55-44.24-8.15-110-3.21-197C478.09 252.44 352.61 256 352.61 256c7.49 150.43-7.49 350.78-7.49 350.78-.36 61.31 2.14 112.29 52.4 141.88 50.52 30 87.25 9 108.78-13 25.34-26.74 52.22-92.89 52.43-95.68a288.51 288.51 0 0 0 2.84 30.27C571.91 740.07 625 760 625 760c47.06 20.32 95.89-4.63 95.89-4.63-.36 0 39.38-17.78 49.61-24.31.71-.71.35-2.14-.71-1.78"/>
   </g>
   <defs>
      <clipPath id="a">
         <path fill="#fff" d="M0 0h1024v1024H0z"/>
      </clipPath>
   </defs>
</svg>

<svg width="1024" height="1024" viewBox="0 0 1024 1024" fill="none" xmlns="http://www.w3.org/2000/svg">
<g clip-path="url(#clip0_2_2388)">
<path d="M512 1024C794.77 1024 1024 794.77 1024 512C1024 229.23 794.77 0 512 0C229.23 0 0 229.23 0 512C0 794.77 229.23 1024 512 1024Z" fill="#BA6561"/>
<path d="M769.83 729.3C677.52 751.87 645.36 681.01 641.43 671.3C632.36 602.18 656.22 512.19 623.25 488.39C598.8 471.09 570.36 492.46 561.71 499.91H561.64C547.02 512.74 537.4 531.28 523.14 559.8C501.38 603.44 483.57 633.62 469.55 654.44C463 610.2 461.4 544.44 466.34 457.44C478.09 252.44 352.61 256 352.61 256C360.1 406.43 345.12 606.78 345.12 606.78C344.76 668.09 347.26 719.07 397.52 748.66C448.04 778.66 484.77 757.66 506.3 735.66C531.64 708.92 558.52 642.77 558.73 639.98C559.144 650.113 560.092 660.217 561.57 670.25C571.91 740.07 625 760 625 760C672.06 780.32 720.89 755.37 720.89 755.37C720.53 755.37 760.27 737.59 770.5 731.06C771.21 730.35 770.85 728.92 769.79 729.28" fill="white"/>
</g>
<defs>
<clipPath id="clip0_2_2388">
<rect width="1024" height="1024" fill="white"/>
</clipPath>
</defs>
</svg>
